svgs/sharp-solid/bed-pulse.svg

<svg xmlns="http://www.w3.org/2000/svg" viewBox="0 0 640 512"><!--! Font Awesome Pro 6.6.0 by @fontawesome - https://fontawesome.com License - https://fontawesome.com/license (Commercial License) Copyright 2024 Fonticons, Inc. --><path d="M472 0l16 0 14.8 0 6.6 13.3L534.8 64 616 64l24 0 0 48-24 0-96 0-14.8 0-6.6-13.3L480.4 62.5 429.7 170.2 423.2 184 408 184l-16 0-15.6 0-6.3-14.3L344.4 112 216 112l-24 0 0-48 24 0 144 0 15.6 0 6.3 14.3 18.5 41.5 49.9-106L456.8 0 472 0zM320 160l10.7 0 10.1 22.7L355.6 216l36.4 0 16 0 35.5 0 15.1-32.2L469.9 160l74.1 0c53 0 96 43 96 96l0 224 0 32-64 0 0-32 0-32-224 0-32 0L64 448l0 32 0 32L0 512l0-32L0 96 0 64l64 0 0 32 0 256 224 0 0-160 0-32 32 0zm-144 0a80 80 0 1 1 0 160 80 80 0 1 1 0-160z"/></svg>

<svg xmlns="http://www.w3.org/2000/svg" viewBox="0 0 640 512"><!--! Font Awesome Pro 6.4.2 by @fontawesome - https://fontawesome.com License - https://fontawesome.com/license (Commercial License) Copyright 2023 Fonticons, Inc. --><path d="M472 0h16 14.8l6.6 13.3L534.8 64H616h24v48H616 520 505.2l-6.6-13.3L480.4 62.5 429.7 170.2 423.2 184H408 392 376.4l-6.3-14.3L344.4 112H216 192V64h24H360h15.6l6.3 14.3 18.5 41.5 49.9-106L456.8 0H472zM320 160h10.7l10.1 22.7L355.6 216H392h16 35.5l15.1-32.2L469.9 160H544c53 0 96 43 96 96V480v32H576V480 448H352 320 64v32 32H0V480 96 64H64V96 352H288V192 160h32zm-144 0a80 80 0 1 1 0 160 80 80 0 1 1 0-160z"/></svg>
